images/form/dish-3.svg

<svg width="107" height="24" viewBox="0 0 107 24" fill="none" xmlns="http://www.w3.org/2000/svg">
<path d="M10.0309 18.5416C9.33823 17.767 9.14032 16.7343 8.97539 15.7338C8.64553 13.4102 8.7115 10.9252 8.64553 8.50471C6.63341 11.3125 5.0501 14.1525 3.13693 17.3475C2.93901 17.5734 2.84006 17.7348 2.5102 17.8639C2.21333 17.8639 1.94944 17.8316 1.71854 17.5089C0.135233 14.6366 -0.161638 11.1188 0.0692613 7.63334C0.0692613 7.40743 0.135233 7.02015 0.399118 6.92334C0.827931 6.79424 1.15779 7.14925 1.15779 7.40743C0.959874 10.6347 1.32272 13.7007 2.41124 16.4761C3.56574 14.5397 4.48934 12.9261 5.47891 11.3447C6.50146 9.69881 7.58999 8.11743 8.97539 6.31015C9.23927 6.11651 9.60212 6.2456 9.73406 6.50379C9.83302 9.60199 9.80003 12.6356 10.0639 15.6048C10.1299 16.5729 10.3608 17.5089 10.4268 18.4125C10.4268 18.5416 10.1299 18.6707 10.0309 18.5416Z" fill="#262626"/>
<path d="M17.8777 17.6379C16.6242 18.2511 15.2388 18.6061 13.7544 18.7675C13.3256 18.832 12.6659 18.8643 12.2701 18.5093C11.8413 18.2189 11.9072 17.5734 12.0062 17.2507C12.0722 17.0893 12.435 16.9602 12.534 17.1861C12.534 17.2184 12.567 17.2829 12.567 17.3475C12.6329 17.5089 12.7319 17.7025 12.9298 17.767C14.4142 17.7025 15.7996 17.412 17.053 16.7989C18.3724 16.1857 19.1971 15.5402 20.1207 14.3784C20.3846 14.0557 20.4505 13.6684 20.2856 13.3779C20.0877 12.9261 19.5929 12.4743 19.1311 12.2484C18.5704 11.9902 17.8777 11.8934 17.119 11.8611C16.4593 11.8611 15.7336 11.8934 15.0079 11.9256C14.81 11.9256 14.6451 11.732 14.6121 11.5706C14.5791 11.3447 14.6451 11.2156 14.777 11.0865L15.1069 10.8606C15.5357 10.7315 15.9975 10.7315 16.3933 10.7638C16.8221 10.7961 17.2179 10.8606 17.6138 10.8284C18.0096 10.8284 18.4384 10.667 18.7353 10.2797L19.362 9.63426C19.5269 9.40835 19.6259 9.18244 19.5269 8.92426C18.9002 8.14971 18.1415 7.73016 17.2839 7.40743C16.2943 7.05243 15.1728 6.92334 14.0183 6.82652C13.7874 6.69743 13.7215 6.27788 13.9194 6.08424C14.2822 5.79378 14.711 5.76151 15.1069 5.79378C15.9975 5.85833 17.185 6.11651 17.9436 6.43924C19.0322 6.89106 19.9557 7.53652 20.5825 8.56925C20.8793 9.21471 20.5825 9.89244 20.1537 10.312C19.8238 10.667 19.428 10.9252 19.0322 11.1834C19.7248 11.4738 20.6484 11.8934 21.1102 12.5388C21.671 13.2488 21.605 14.1202 21.2092 14.8302C20.6155 15.992 19.0322 17.057 17.8777 17.6379Z" fill="#262626"/>
<path d="M39.7603 17.7993C38.2759 18.5416 36.4947 18.8643 34.8784 18.0898C33.625 17.4766 32.7343 16.4438 32.3055 15.1529C31.8107 13.6361 31.9757 11.9256 32.6354 10.5056C33.1302 9.4729 33.8888 8.56925 34.7794 7.89152C35.3732 7.47197 36.2638 6.95561 37.0884 6.85879C37.7482 6.11651 38.8367 5.8906 39.7603 6.11651C41.3436 6.53606 42.696 8.11743 43.1248 9.50517C43.5536 10.8606 43.6526 12.3452 43.2568 13.7329C42.762 15.6048 41.5085 16.9602 39.7603 17.7993ZM42.0363 9.86017C41.6405 8.79517 40.7499 7.60107 39.5954 7.21379C39.0676 7.02015 38.5068 6.95561 38.078 7.27834C37.6492 7.60107 37.3853 8.11743 37.1874 8.56925C37.1544 8.66607 37.1544 8.79517 37.1544 8.92426C37.1544 9.05335 37.1544 9.21471 37.1214 9.34381C37.0884 9.40835 36.7586 9.60199 36.6596 9.40835C36.5937 9.1179 36.5277 8.53698 36.5607 8.08516C35.3072 8.60153 34.2517 9.66653 33.6579 10.8606C33.0312 12.1193 32.9982 13.5716 33.3941 14.8625C33.7239 15.8629 34.3506 16.702 35.4062 17.1216C36.7256 17.6057 38.144 17.4443 39.3315 16.8634C40.6839 16.1857 41.6405 15.1529 42.1023 13.7652C42.5311 12.5388 42.4651 11.0865 42.0363 9.86017Z" fill="#262626"/>
<path d="M51.4625 17.7025C50.4729 18.348 49.2524 18.8643 48.032 18.8643C47.3393 18.8643 46.8445 18.5739 46.3827 17.9284C46.2177 18.0575 45.9209 18.1543 45.7889 17.9607C45.1952 17.1539 45.0303 16.0243 44.9973 14.927C44.9313 12.1193 44.9643 10.0538 45.723 7.53652C45.7889 7.27834 46.4157 6.79424 46.8775 6.92334C47.0754 6.40697 47.6031 5.85833 48.2299 5.79378C49.9121 5.79378 51.7263 6.66515 52.2871 8.31107C52.452 8.82744 52.452 9.37608 52.2541 9.89244C52.0562 10.3765 51.7263 10.7961 51.2975 11.1188L51.0996 11.2802C51.9243 11.5384 52.8479 12.0547 53.3756 12.8616C53.7715 13.4747 53.8044 14.217 53.6395 14.927C53.3426 16.0888 52.485 17.0248 51.4625 17.7025ZM52.3861 13.4102C52.1222 12.9261 51.3965 12.6356 50.8687 12.3775C50.242 11.9902 49.6812 12.1515 49.0545 12.2806L48.0649 12.5066C47.7021 12.6034 47.3393 12.6034 46.9434 12.5066C46.7785 12.4097 46.5806 12.087 46.7455 11.9256C47.1413 11.5384 47.6361 11.3447 48.1969 11.2156L49.7142 11.0543C50.308 10.7315 50.9347 10.0861 51.1986 9.4729C51.3635 8.95653 51.2645 8.60153 50.9347 8.18198C50.341 7.37516 49.3844 7.02015 48.4278 6.92334C48.1309 6.89106 48.032 6.95561 47.966 7.14925C47.867 7.40743 47.8011 7.69789 47.6361 7.9238C47.5702 8.08516 47.3393 8.14971 47.1743 8.05289C47.0424 8.02062 46.9434 7.95607 46.8775 7.89152C46.4816 9.27926 46.2507 10.8606 46.1848 12.5066C46.1188 14.0557 46.1848 15.5725 46.4157 16.9925C46.6795 16.702 47.0094 16.2825 47.1743 16.0566C47.4052 15.8307 47.834 16.1857 47.7681 16.4116C47.7021 16.5729 47.5702 16.7666 47.4712 16.9279C47.4052 17.1216 47.3063 17.2829 47.3063 17.412C47.5042 17.7025 47.966 17.7993 48.5267 17.7348C49.3514 17.6057 50.341 17.1539 51.0666 16.6052C51.7263 16.0888 52.2871 15.4434 52.452 14.6366C52.551 14.2493 52.617 13.7975 52.3861 13.4102Z" fill="#262626"/>
<path d="M62.6634 17.7993C61.1791 18.5416 59.3978 18.8643 57.7815 18.0898C56.5281 17.4766 55.6375 16.4438 55.2087 15.1529C54.7139 13.6361 54.8788 11.9256 55.5385 10.5056C56.0333 9.4729 56.792 8.56925 57.6826 7.89152C58.2763 7.47197 59.1669 6.95561 59.9916 6.85879C60.6513 6.11651 61.7398 5.8906 62.6634 6.11651C64.2467 6.53606 65.5991 8.11743 66.0279 9.50517C66.4568 10.8606 66.5557 12.3452 66.1599 13.7329C65.6651 15.6048 64.4117 16.9602 62.6634 17.7993ZM64.9394 9.86017C64.5436 8.79517 63.653 7.60107 62.4985 7.21379C61.9707 7.02015 61.41 6.95561 60.9811 7.27834C60.5523 7.60107 60.2884 8.11743 60.0905 8.56925C60.0575 8.66607 60.0575 8.79517 60.0575 8.92426C60.0575 9.05335 60.0575 9.21471 60.0246 9.34381C59.9916 9.40835 59.6617 9.60199 59.5628 9.40835C59.4968 9.1179 59.4308 8.53698 59.4638 8.08516C58.2103 8.60153 57.1548 9.66653 56.5611 10.8606C55.9343 12.1193 55.9013 13.5716 56.2972 14.8625C56.627 15.8629 57.2538 16.702 58.3093 17.1216C59.6287 17.6057 61.0471 17.4443 62.2346 16.8634C63.587 16.1857 64.5436 15.1529 65.0054 13.7652C65.4342 12.5388 65.3682 11.0865 64.9394 9.86017Z" fill="#262626"/>
<path d="M77.2353 23.4471C76.3777 23.5439 75.5861 23.318 74.9923 22.7371L74.8934 22.608L74.7944 22.4466C74.7284 22.3498 74.6954 22.1884 74.7944 22.0271C75.1243 21.9625 75.3222 22.1239 75.5531 22.2852C75.619 22.3498 75.685 22.3821 75.751 22.3821C76.3447 22.6725 77.0044 22.5434 77.5652 22.3498C79.2475 21.7689 81.6224 20.5748 82.612 19.2193C82.711 18.7675 82.546 18.4125 82.3151 18.0898C82.0183 17.6379 81.6224 17.2184 81.5565 16.6698L80.0061 17.412C79.4454 17.6702 78.8187 17.8639 78.1919 17.9607C77.4003 18.0575 76.5756 17.9607 75.8499 17.4443C75.3552 17.0893 75.1572 16.6052 75.0253 16.1211C74.0357 16.8634 73.0132 17.7025 71.8257 18.122C71.232 18.3157 70.5393 18.4125 69.8136 18.2834C68.923 17.9284 68.5601 17.1861 68.3622 16.4116C68.0653 15.0884 68.0653 12.8616 68.1643 11.5706C68.3292 9.66653 68.6921 7.79471 69.2528 6.05197C69.5167 5.66469 69.9455 5.98742 70.1104 6.21333C70.0115 7.4397 69.7146 8.53698 69.5167 9.69881C69.1209 11.9256 69.1539 14.1202 69.4507 16.347C69.5167 16.702 69.7806 17.057 70.1104 17.2184C71.0011 17.4443 71.8587 17.057 72.6503 16.6698C73.409 16.1534 74.2007 15.6048 74.8934 14.9916C74.8274 12.3775 74.9923 9.8279 75.5531 7.4397C75.685 7.24606 76.0479 7.21379 76.1798 7.31061C76.4437 7.63334 76.5426 7.98834 76.4767 8.37562C76.1468 10.7961 75.784 13.4425 76.1468 15.9598C76.2128 16.5084 76.8065 16.8634 77.3013 17.0248C78.8516 16.9925 80.1711 16.4438 81.4245 15.7338C81.0617 12.442 81.4575 9.1179 82.2162 6.14879C82.4471 5.82606 82.7769 5.98742 82.9748 6.14879C83.2057 6.40697 83.1728 6.85879 83.1398 7.18152C82.513 10.1506 82.0512 13.3134 82.678 16.4438C82.678 16.702 82.7769 16.9602 82.9419 17.1861C83.4037 18.0252 84.2613 18.7675 83.5356 19.8325C81.7874 21.6398 79.5773 22.8016 77.2353 23.4471Z" fill="#262626"/>
<path d="M90.3067 18.5739C88.6574 18.5093 87.1401 17.767 86.1835 16.3793C85.3918 15.2175 85.1939 13.862 85.3588 12.5388C85.5567 11.0543 86.1835 9.63426 87.0411 8.53698C87.9977 7.31061 89.3501 6.34242 90.9004 6.05197C91.956 5.85833 93.0775 5.95515 93.8691 6.79424C94.232 7.18152 94.5618 7.60107 94.5618 8.11743C94.5948 8.66607 94.3309 9.15017 93.8691 9.50517C91.5601 11.377 89.1192 13.1197 86.6123 14.5397C86.6783 15.5402 87.5689 16.5729 88.5255 17.0893C89.482 17.6057 90.6036 17.6702 91.6591 17.5411C92.7146 17.4443 93.8032 17.0893 94.5618 16.7343C94.6938 16.6375 94.7927 16.7343 94.8257 16.8311C94.8587 16.8957 94.9247 17.0248 94.7927 17.1216C93.6382 18.1543 91.989 18.6384 90.3067 18.5739ZM91.7581 7.05243C90.8015 7.05243 89.8449 7.4397 89.0862 8.02062C87.4699 9.31153 86.5133 11.377 86.5133 13.3779C88.8553 12.1193 91.0654 10.4734 93.2094 8.76289C93.3744 8.6338 93.5063 8.14971 93.2754 7.76243C93.0115 7.24606 92.4178 7.05243 91.7581 7.05243Z" fill="#262626"/>
<path d="M103.767 1.46921C103.701 1.30785 103.602 1.11421 103.537 0.952843C103.504 0.726934 103.668 0.662387 103.767 0.662387C103.899 0.662387 104.031 0.726934 104.13 0.759206C104.427 0.985118 104.658 1.34012 104.823 1.69512C104.955 2.01785 104.922 2.46967 104.724 2.72785C104.493 3.01831 104.229 3.30877 103.899 3.50241C103.405 3.79286 102.811 4.01877 102.283 4.18014C101.722 4.3415 100.502 4.37377 99.9411 4.21241C99.1824 4.01877 98.7206 3.66377 98.4897 3.1474C98.3248 2.76013 98.2588 2.30831 98.3248 1.82421C98.3578 1.40466 98.4897 0.985118 98.6876 0.662387C98.7536 0.565569 98.8525 0.533297 98.9185 0.533297C98.9845 0.501023 99.0505 0.501023 99.1494 0.46875C99.3143 0.597842 99.5123 0.726934 99.5123 0.952843C99.5123 1.17875 99.4793 1.43694 99.4463 1.69512C99.3803 1.98558 99.3473 2.24376 99.4463 2.4374C99.4463 2.88922 99.7432 3.11513 100.172 3.24422C100.733 3.40559 101.524 3.34104 102.217 3.1474C102.745 2.98604 103.24 2.76013 103.569 2.46967C103.767 2.30831 103.866 2.14694 103.866 1.98558C103.899 1.82421 103.833 1.66285 103.767 1.46921ZM106.604 18.5416C105.911 17.767 105.714 16.7343 105.549 15.7338C105.219 13.4102 105.285 10.9252 105.219 8.50471C103.207 11.3125 101.623 14.1525 99.7102 17.3475C99.5123 17.5734 99.4133 17.7348 99.0834 17.8639C98.7866 17.8639 98.5227 17.8316 98.2918 17.5089C96.7085 14.6366 96.4116 11.1188 96.6425 7.63334C96.6425 7.40743 96.7085 7.02015 96.9724 6.92334C97.4012 6.79424 97.731 7.14925 97.731 7.40743C97.5331 10.6347 97.896 13.7007 98.9845 16.4761C100.139 14.5397 101.063 12.9261 102.052 11.3447C103.075 9.69881 104.163 8.11743 105.549 6.31015C105.813 6.11651 106.175 6.2456 106.307 6.50379C106.406 9.60199 106.373 12.6356 106.637 15.6048C106.703 16.5729 106.934 17.5089 107 18.4125C107 18.5416 106.703 18.6707 106.604 18.5416Z" fill="#262626"/>
</svg>

<svg width="107" height="24" fill="none" xmlns="http://www.w3.org/2000/svg"><path d="M10.03 18.542c-.692-.775-.89-1.808-1.055-2.808-.33-2.324-.264-4.809-.33-7.23-2.012 2.809-3.595 5.649-5.508 8.844-.198.225-.297.387-.627.516-.297 0-.56-.032-.791-.355-1.584-2.872-1.88-6.39-1.65-9.876 0-.226.066-.613.33-.71.429-.129.759.226.759.484-.198 3.228.165 6.294 1.253 9.07 1.155-1.937 2.078-3.55 3.068-5.132A60.74 60.74 0 0 1 8.975 6.31c.264-.193.627-.064.76.194.098 3.098.065 6.132.329 9.1.066.969.297 1.905.363 2.809 0 .129-.297.258-.396.129zM17.878 17.638c-1.254.613-2.64.968-4.124 1.13-.428.064-1.088.096-1.484-.259-.429-.29-.363-.936-.264-1.258.066-.162.429-.29.528-.065 0 .032.033.097.033.162.066.16.165.355.363.419 1.484-.064 2.87-.355 4.123-.968 1.32-.613 2.144-1.259 3.068-2.42.264-.323.33-.71.165-1.001-.198-.452-.693-.904-1.155-1.13-.56-.258-1.253-.355-2.012-.387-.66 0-1.385.032-2.111.065-.198 0-.363-.194-.396-.355a.5.5 0 0 1 .165-.485l.33-.225c.429-.13.89-.13 1.286-.097.43.032.825.097 1.22.064.397 0 .825-.161 1.122-.548l.627-.646c.165-.226.264-.452.165-.71-.627-.774-1.386-1.194-2.243-1.517-.99-.355-2.111-.484-3.266-.58-.23-.13-.296-.55-.099-.743.363-.29.792-.322 1.188-.29.89.064 2.078.323 2.837.645 1.088.452 2.012 1.098 2.639 2.13.296.646 0 1.323-.43 1.743-.33.355-.725.613-1.12.871.692.29 1.615.71 2.077 1.356.561.71.495 1.581.1 2.291-.595 1.162-2.178 2.227-3.332 2.808zM39.76 17.8c-1.484.742-3.265 1.064-4.882.29a4.963 4.963 0 0 1-2.572-2.937c-.495-1.517-.33-3.227.33-4.647a7.273 7.273 0 0 1 2.143-2.614c.594-.42 1.485-.936 2.31-1.033.66-.742 1.748-.968 2.671-.742 1.584.42 2.936 2 3.365 3.388.429 1.356.528 2.84.132 4.228-.495 1.872-1.748 3.227-3.497 4.066zm2.276-7.94c-.395-1.065-1.286-2.259-2.44-2.646-.528-.194-1.09-.258-1.518.064-.429.323-.693.84-.89 1.291-.034.097-.034.226-.034.355 0 .13 0 .29-.033.42-.033.064-.362.258-.461.064a5.285 5.285 0 0 1-.1-1.323c-1.253.517-2.308 1.582-2.902 2.776-.627 1.258-.66 2.71-.264 4.002.33 1 .957 1.839 2.012 2.259 1.32.484 2.738.322 3.925-.259 1.353-.677 2.31-1.71 2.771-3.098.43-1.226.363-2.679-.066-3.905zM51.462 17.703c-.99.645-2.21 1.161-3.43 1.161-.693 0-1.188-.29-1.65-.936-.164.13-.461.226-.593.033-.594-.807-.759-1.937-.792-3.034-.066-2.808-.033-4.873.726-7.39.066-.259.693-.743 1.154-.614.198-.516.726-1.065 1.353-1.13 1.682 0 3.496.872 4.057 2.518a2.367 2.367 0 0 1-.033 1.581 2.919 2.919 0 0 1-.956 1.227l-.198.161c.824.258 1.748.775 2.276 1.582.396.613.428 1.355.264 2.065-.297 1.162-1.155 2.098-2.178 2.776zm.924-4.293c-.264-.484-.99-.774-1.517-1.033-.627-.387-1.188-.226-1.815-.096l-.99.226a2.2 2.2 0 0 1-1.12 0c-.166-.097-.363-.42-.199-.581.396-.388.891-.581 1.452-.71l1.517-.162c.594-.322 1.22-.968 1.485-1.581.165-.516.066-.871-.264-1.291-.594-.807-1.55-1.162-2.507-1.259-.297-.032-.396.033-.462.226-.099.258-.165.549-.33.775-.066.161-.297.226-.462.129a.641.641 0 0 1-.297-.161c-.395 1.387-.626 2.969-.692 4.615-.066 1.549 0 3.066.23 4.486.264-.291.594-.71.76-.936.23-.226.659.129.593.355-.066.16-.198.355-.297.516-.066.194-.165.355-.165.484.198.29.66.387 1.22.323.825-.13 1.815-.581 2.54-1.13.66-.516 1.221-1.162 1.386-1.968.099-.388.165-.84-.066-1.227zM62.663 17.8c-1.484.742-3.265 1.064-4.881.29a4.963 4.963 0 0 1-2.573-2.937c-.495-1.517-.33-3.227.33-4.647a7.273 7.273 0 0 1 2.144-2.614c.593-.42 1.484-.936 2.309-1.033.66-.742 1.748-.968 2.671-.742 1.584.42 2.936 2 3.365 3.388.429 1.356.528 2.84.132 4.228-.495 1.872-1.748 3.227-3.497 4.066zm2.276-7.94c-.395-1.065-1.286-2.259-2.44-2.646-.528-.194-1.089-.258-1.518.064-.429.323-.693.84-.89 1.291-.034.097-.034.226-.034.355 0 .13 0 .29-.032.42-.033.064-.363.258-.462.064a5.28 5.28 0 0 1-.1-1.323c-1.253.517-2.308 1.582-2.902 2.776-.627 1.258-.66 2.71-.264 4.002.33 1 .957 1.839 2.012 2.259 1.32.484 2.738.322 3.926-.259 1.352-.677 2.309-1.71 2.77-3.098.43-1.226.363-2.679-.066-3.905zM77.235 23.447c-.857.097-1.649-.129-2.243-.71l-.099-.129-.099-.161a.382.382 0 0 1 0-.42c.33-.065.528.097.76.258.065.065.131.097.197.097.594.29 1.253.161 1.814-.032 1.683-.581 4.057-1.775 5.047-3.13.099-.453-.066-.807-.297-1.13-.297-.452-.693-.872-.758-1.42l-1.55.742a6.93 6.93 0 0 1-1.815.549c-.792.097-1.616 0-2.342-.517-.495-.355-.693-.839-.825-1.323-.99.742-2.012 1.582-3.2 2.001a4.143 4.143 0 0 1-2.011.161c-.891-.355-1.254-1.097-1.452-1.871-.297-1.324-.297-3.55-.198-4.841a25.215 25.215 0 0 1 1.089-5.519c.264-.387.692-.065.857.161-.099 1.227-.395 2.324-.593 3.486-.396 2.227-.363 4.421-.066 6.648.066.355.33.71.66.871.89.226 1.748-.161 2.54-.548.758-.517 1.55-1.065 2.242-1.678-.066-2.615.1-5.164.66-7.552.132-.194.495-.226.627-.13.264.323.363.678.297 1.066-.33 2.42-.693 5.067-.33 7.584.066.548.66.903 1.154 1.065 1.55-.032 2.87-.581 4.123-1.291-.362-3.292.033-6.616.792-9.585.231-.323.56-.162.759 0 .23.258.198.71.165 1.033-.627 2.969-1.089 6.131-.462 9.262 0 .258.099.516.264.742.462.84 1.32 1.581.594 2.646-1.749 1.808-3.959 2.97-6.3 3.615zM90.307 18.574c-1.65-.065-3.167-.807-4.124-2.195-.791-1.162-.99-2.517-.824-3.84a8.424 8.424 0 0 1 1.682-4.002c.957-1.226 2.31-2.195 3.86-2.485 1.055-.194 2.177-.097 2.968.742.363.388.693.807.693 1.323.033.55-.231 1.033-.693 1.388-2.309 1.872-4.75 3.615-7.257 5.035.066 1 .957 2.033 1.913 2.55.957.516 2.079.58 3.134.451 1.056-.097 2.144-.452 2.903-.807.132-.097.23 0 .264.097.033.065.099.194-.033.29-1.155 1.033-2.804 1.517-4.486 1.453zm1.451-11.522c-.956 0-1.913.388-2.672.969-1.616 1.29-2.573 3.356-2.573 5.357 2.342-1.259 4.552-2.905 6.696-4.615.165-.13.297-.613.066-1-.264-.517-.857-.71-1.517-.71zM103.767 1.47c-.066-.162-.165-.356-.23-.517-.033-.226.131-.29.23-.29.132 0 .264.064.363.096.297.226.528.581.693.936.132.323.099.775-.099 1.033-.231.29-.495.58-.825.774-.494.29-1.088.517-1.616.678-.561.162-1.781.194-2.342.032-.759-.193-1.22-.548-1.451-1.065-.165-.387-.231-.839-.165-1.323.033-.42.165-.839.363-1.162a.287.287 0 0 1 .23-.129c.066-.032.132-.032.231-.064.165.129.363.258.363.484 0 .226-.033.484-.066.742-.066.29-.099.549 0 .742 0 .452.297.678.726.807.561.162 1.352.097 2.045-.097.528-.161 1.023-.387 1.352-.677.198-.162.297-.323.297-.484.033-.162-.033-.323-.099-.517zm2.837 17.072c-.693-.775-.89-1.808-1.055-2.808-.33-2.324-.264-4.809-.33-7.23-2.012 2.809-3.596 5.649-5.509 8.844-.198.225-.297.387-.627.516-.296 0-.56-.032-.791-.355-1.584-2.872-1.88-6.39-1.65-9.876 0-.226.067-.613.33-.71.43-.129.759.226.759.484-.198 3.228.165 6.294 1.254 9.07 1.154-1.937 2.078-3.55 3.067-5.132a60.717 60.717 0 0 1 3.497-5.035c.264-.193.626-.064.758.194.099 3.098.066 6.132.33 9.1.066.969.297 1.905.363 2.809 0 .129-.297.258-.396.129z" fill="#262626"/></svg>
